!!!OTL: Drei Fraeulein
!!!ARE: Europa, Mitteleuropa, Deutschland
!!!SCT: A0184
!!!YEM: Copyright 1995, estate of Helmut Schaffrath.
**kern
*ICvox
*Ivox
*M4/2
*k[f#]
*G:
{2g
=1
2g
2g
2g
2g
=2
1a
1a}
=3
{1dd
2dd
2a
=4
2dd
1cc
2b-
=5
0a
=6
1.r}
{2dd
=7
2dd
2dd
2dd
2dd
=8
2cc
1a}
{2b-
=9
1g
2a
2cc
=10
4dd
4b-
4a
4g
1a
=11
0g}
=12
{1dd
2ffn
2dd
=13
4dd
4b-
2cc
1a
=14
1.g}
==
!!!AGN: Romanze, Ballade, Lied
!! Joh. Ott 1534 No. 41. Forster V 1556 No. 45.
!!!ONB: ESAC (Essen Associative Code) Database: ALTDEU
!!!AMT: simple quadruple
!!!AIN: vox
!!!EED: Helmut Schaffrath
!!!EEV: 1.0
*-
